!!!Genre:	Freylekhs
!!!Mode:	Freygish
!!!Edition:	2001
!!!Listening/dance:	dance
!!!Free rhythm?:	No
!!!Secondary Modes:	All freygish
!!!One_Mode:	yes
**kern
*part1
*staff1
*clefG2
*k[b-e-a-]
*G:frey
*M2/4
*>A
=1-
4g
4g
=2
(<16gLL
16bnJJ)
4a-
16gLL
16fJJ
=3
16enLL
16fJ
8gJ
8gL
8gJ
=4
(<16gLL
16bnJJ
4a-)
16gLL
16fJJ
=5
16enLL
16fJ
8gJ
8gL
8gJ
=6
(>16bnLL
16ddJJ
4cc)
16bLL
16a-JJ
=7
12bnL
(>8qdd/
12cc)
12bJ
12a-L
(<8qcc/
12b)
12a-J
=8
12gL
(<8qbn/
12a-)
12gJ
4f
=9:|!
2g
=10!|:
*>B
(>8.ccL
16bnJk)
(>8.ccL
16bJk)
=11
8.ccL
16bnJk
16a-LL
16gJ
8a-J
=12
12bnL
12cc
12bJ
12a-L
12b
12a-J
=13
12gL
12a-
12gJ
4f
=14:|!
2g
=15!|:
*>C
12fL
12f
12fJ
12a-L
12g
12fJ
=16
12fL
12f
12fJ
12ddL
12cc
12bnJ
=17
12bnL
12cc
12bJ
12a-L
12b
12a-J
=18
12gL
12a-
12gJ
4f
=19:|!
2g
==
*-
